X:1
T:My wife's a drunkard
M:C|
L:1/16
%Q:180
S:Noel Jackson <noelbats:onetel.com> tradtunes 2008-4-21
S:Da Merrie Dancers. Anderson &Georgeson
R:Reel
O:Shetland
A:
Z:Noel Jackson
K:D
|: "A"a3e~e4   a4e2f2 | "G"g2e2d2e2 g4g4 | "A"a3e~e4   a4e4   | "G"d2B2G2B2 "A"A6z2 :|
|: "A"e2A2c2A2 e4g2e2 | "G"d2B2G2B2 d4d4 | "A"e2A2c2A2 e4g3e2 | "G"d2B2G2B2 "A"A6z2 :|
